brandFactory_export/2.Regular/Learndata_2Regular.svg

<?xml version="1.0" encoding="UTF-8"?>
<svg width="24px" height="24px" viewBox="0 0 24 24" version="1.1" xmlns="http://www.w3.org/2000/svg" xmlns:xlink="http://www.w3.org/1999/xlink">
    <title>2.Regular/Learndata_2Regular</title>
    <g id="Symbols" stroke="none" stroke-width="1" fill="none" fill-rule="evenodd">
        <g id="2.Regular/Learndata_2Regular" fill="#5CB615" fill-rule="nonzero">
            <path d="M22.1243697,8.97142857 C21.8957983,9.36470588 21.2369748,9.88571429 20.0773109,10.2352941 C18.810084,10.6184874 17.1428571,10.8268908 15.3747899,10.8369748 C15.3445378,10.8168067 15.3042017,10.7966387 15.2672269,10.7764706 L8.66890756,7.81512605 C8.57815126,7.77478992 8.48739496,7.74453782 8.4,7.72436975 L8.4,5.31428571 C8.85042017,5.58655462 9.38823529,5.82521008 10.0369748,6.01680672 C11.4621849,6.44705882 13.3210084,6.6789916 15.2773109,6.6789916 C17.2235294,6.6789916 19.0789916,6.44705882 20.507563,6.01680672 C21.1462185,5.82521008 21.687395,5.59327731 22.1243697,5.32436975 L22.1243697,8.97142857 L22.1243697,8.97142857 Z M22.1243697,14.6521008 C21.9058824,15.0352941 21.2470588,15.5663866 20.0773109,15.9193277 C18.789916,16.312605 17.0823529,16.5210084 15.2773109,16.5210084 C14.8672269,16.5210084 14.4470588,16.5109244 14.0470588,16.4806723 L14.0470588,14.0302521 L15.2672269,13.4890756 C15.7445378,13.2773109 16.0672269,12.8369748 16.1243697,12.3226891 C17.7613445,12.2722689 19.3008403,12.0403361 20.507563,11.6705882 C21.1159664,11.4890756 21.6638655,11.2470588 22.1243697,10.9579832 L22.1243697,14.6521008 Z M22.1243697,19.9563025 C22.1243697,20.7294118 21.0084034,21.2302521 20.0672269,21.512605 C18.7697479,21.9058824 17.0621849,22.1176471 15.2537815,22.1176471 C13.4554622,22.1176471 11.7478992,21.9058824 10.4537815,21.512605 C9.63361345,21.2605042 8.67563025,20.8504202 8.44705882,20.2285714 C8.73613445,20.1680672 9.01512605,20.0470588 9.26386555,19.8554622 C10.292437,19.0319328 11.7310924,18.6386555 12.7495798,18.4605042 C13.0991597,18.4 13.4084034,18.2184874 13.6268908,17.9697479 C14.1647059,18.010084 14.7159664,18.0302521 15.2739496,18.0302521 C17.2201681,18.0302521 19.0857143,17.7983193 20.5042017,17.3680672 C21.112605,17.1764706 21.6605042,16.9344538 22.1210084,16.6554622 L22.1210084,19.9563025 L22.1243697,19.9563025 Z M7.93613445,18.6722689 C6.65882353,17.6571429 4.97142857,17.1966387 3.7210084,16.9042017 L3.7210084,14.7663866 L7.46554622,16.4436975 C7.65378151,16.5344538 7.86554622,16.5747899 8.06386555,16.5747899 C8.27563025,16.5747899 8.47394958,16.5344538 8.66554622,16.4436975 L12.5310924,14.7159664 L12.4907563,16.9747899 C11.2907563,17.1966387 9.61680672,17.6571429 8.33613445,18.6722689 C8.21848739,18.7630252 8.05714286,18.7630252 7.93613445,18.6722689 Z M1.4789916,12.1546218 L8.06722689,9.19327731 L14.6588235,12.1142857 L8.07731092,15.0655462 L1.4789916,12.1546218 Z M10.4537815,2.11092437 C11.7411765,1.71764706 13.4487395,1.50588235 15.2537815,1.50588235 C17.0722689,1.50588235 18.7798319,1.71764706 20.0672269,2.11092437 C20.8672269,2.36302521 21.794958,2.76302521 22.0537815,3.34453782 C22.0134454,3.44537815 21.9529412,3.53613445 21.8621849,3.62689076 C21.5529412,3.98991597 20.9243697,4.31932773 20.0638655,4.57142857 C18.7865546,4.96470588 17.0789916,5.17310924 15.2705882,5.17310924 C13.4521008,5.17310924 11.7445378,4.96134454 10.4672269,4.57142857 C9.96638655,4.42016807 9.54957983,4.2487395 9.22016807,4.05042017 C8.8302521,3.83865546 8.58151261,3.58991597 8.47058824,3.33781513 C8.67563025,2.86386555 9.37478992,2.4302521 10.4537815,2.11092437 Z M20.497479,0.672268908 C19.0789916,0.242016807 17.2134454,0 15.2571429,0 C13.3008403,0 11.4453782,0.242016807 10.0268908,0.672268908 C8.3092437,1.18655462 7.2907563,1.97983193 6.99159664,3.02184874 C6.93109244,3.23361345 6.90084034,3.45546218 6.90084034,3.67394958 L6.90084034,8.06722689 L0.870588235,10.7697479 C0.332773109,11.0218487 0.00336134454,11.5327731 0.00336134454,12.1344538 C0.00336134454,12.7159664 0.342857143,13.2504202 0.870588235,13.492437 L2.22857143,14.0941176 L2.22857143,16.9042017 C2.22857143,17.6672269 2.76638655,18.3294118 3.52605042,18.4605042 C4.50420168,18.6319328 5.88235294,19.0016807 6.90084034,19.7747899 L6.90084034,19.9563025 C6.90084034,21.3109244 7.94957983,22.3260504 10.0268908,22.9579832 C11.4554622,23.3815126 13.3109244,23.6201681 15.2571429,23.6201681 C17.2033613,23.6201681 19.0722689,23.3781513 20.497479,22.9579832 C22.5747899,22.3260504 23.6235294,21.3109244 23.6235294,19.9563025 L23.6235294,3.67394958 C23.6235294,2.31260504 22.5747899,1.29747899 20.497479,0.672268908 Z" id="Learndata_2Regular"></path>
        </g>
    </g>
</svg>

<svg width="24" height="24" viewBox="0 0 24 24" xmlns="http://www.w3.org/2000/svg"><path d="M22.124 8.971c-.228.394-.887.915-2.047 1.264-1.267.383-2.934.592-4.702.602-.03-.02-.07-.04-.108-.06L8.67 7.814c-.09-.04-.182-.07-.269-.09v-2.41c.45.272.988.51 1.637.702 1.425.43 3.284.662 5.24.662 1.947 0 3.802-.232 5.23-.662.64-.192 1.18-.424 1.617-.693v3.647zm0 5.681c-.218.383-.877.914-2.047 1.267-1.287.394-2.995.602-4.8.602-.41 0-.83-.01-1.23-.04v-2.45l1.22-.542c.478-.212.8-.652.857-1.166 1.637-.05 3.177-.283 4.384-.652a6.603 6.603 0 001.616-.713v3.694zm0 5.304c0 .773-1.116 1.274-2.057 1.557-1.297.393-3.005.605-4.813.605-1.799 0-3.506-.212-4.8-.605-.82-.252-1.778-.663-2.007-1.284.29-.06.568-.182.817-.374 1.028-.823 2.467-1.216 3.486-1.394.35-.061.658-.243.877-.491.538.04 1.089.06 1.647.06 1.946 0 3.812-.232 5.23-.662a7.466 7.466 0 001.617-.713v3.301h.003zM7.936 18.672c-1.277-1.015-2.965-1.475-4.215-1.768v-2.138l3.745 1.678c.188.09.4.13.598.13.212 0 .41-.04.602-.13l3.865-1.728-.04 2.259c-1.2.222-2.874.682-4.155 1.697a.328.328 0 01-.4 0zM1.48 12.155l6.588-2.962 6.592 2.921-6.582 2.952-6.598-2.911zM10.454 2.11c1.287-.393 2.995-.605 4.8-.605 1.818 0 3.526.212 4.813.605.8.252 1.728.652 1.987 1.234-.04.1-.101.191-.192.282-.31.363-.938.692-1.798.944-1.277.394-2.985.602-4.793.602-1.819 0-3.526-.212-4.804-.602-.5-.15-.917-.322-1.247-.52-.39-.212-.638-.461-.75-.713.206-.474.905-.908 1.984-1.227zM20.497.672C19.08.242 17.213 0 15.257 0c-1.956 0-3.812.242-5.23.672-1.718.515-2.736 1.308-3.035 2.35-.06.212-.091.433-.091.652v4.393L.87 10.77a1.479 1.479 0 00-.868 1.364c0 .582.34 1.116.868 1.358l1.358.602v2.81a1.57 1.57 0 001.297 1.557c.978.17 2.356.54 3.375 1.314v.181c0 1.355 1.049 2.37 3.126 3.002 1.428.424 3.284.662 5.23.662 1.946 0 3.815-.242 5.24-.662 2.078-.632 3.127-1.647 3.127-3.002V3.674c0-1.361-1.05-2.377-3.127-3.002z" fill="#5CB615" fill-rule="nonzero"/></svg>
